!!!COM:	la Rue, Pierre de
!!!CDT:	~1452///-1518/11/20
!!!OPR:	Missa Ave Maria
!!!ONM:	3
!!!OTL:	Credo
!!!AGN:	Mass; Credo
!!!SCT:	Rue1004c
!!!SCA:	Rue1004c
!!!voices:	5
!!!voices-OPR:	4(-5)
**kern	**kern	**kern	**kern	**kern
*staff5	*staff4	*staff3	*staff2	*staff1
*Ivox	*Ivox	*Ivox	*Ivox	*Ivox
*I"Bassus	*I"Tenor2	*I"Tenor1	*I"Contra	*I"Discantus
*I'B	*I'T2	*I'T1	*I'C	*I'D
*>[A,B,C]	*>[A,B,C]	*>[A,B,C]	*>[A,B,C]	*>[A,B,C]
*>A	*>A	*>A	*>A	*>A
*clefF4	*clefGv2	*clefGv2	*clefGv2	*clefG2
*k[]	*k[]	*k[]	*k[]	*k[]
*M2/1	*M2/1	*M2/1	*M2/1	*M2/1
*met(C)	*met(C)	*met(C)	*met(C)	*met(C)
=1-	=1-	=1-	=1-	=1-
!!section: Patrem omnipotentem
!!!OMD: Patrem omnipotentem
0r	0r	0r	0c	0r
=2	=2	=2	=2	=2
0r	0r	0r	2.G/	0r
.	.	.	4A/	.
.	.	.	1A	.
=3	=3	=3	=3	=3
0r	0r	0r	2r	0cc
.	.	.	2A/	.
.	.	.	2.c\	.
.	.	.	4d\	.
=4	=4	=4	=4	=4
0r	0r	0r	2e\	2.g/
.	.	.	2e\	.
.	.	.	.	4a/
.	.	.	[1f	1a
=5	=5	=5	=5	=5
0r	0r	0r	1f]	2r
.	.	.	.	2a/
.	.	.	1f	2.cc\
.	.	.	.	4dd\
=6	=6	=6	=6	=6
0r	0r	0r	2e\	1ee
.	.	.	2.a\	.
.	.	.	.	[1ff
.	.	.	4d\	.
.	.	.	[2d\	.
=7	=7	=7	=7	=7
0r	0r	0r	2d\]	2ff\]
.	.	.	1a	2ee\
.	.	.	.	1ee
.	.	.	[2g\	.
=8	=8	=8	=8	=8
0r	0r	0r	2g\]	2r
.	.	.	2e\	2ee\
.	.	.	2f\	2dd\
.	.	.	2g\	2dd\
=9	=9	=9	=9	=9
0r	0r	0r	1c	2.ee\
.	.	.	.	4dd\
.	.	.	1r	2b\
.	.	.	.	[2ee\
=10	=10	=10	=10	=10
0r	0r	0r	2.g\	2ee\]
.	.	.	.	1dd
.	.	.	4g\	.
.	.	.	2f\	.
.	.	.	2g\	2b\
=11	=11	=11	=11	=11
0r	0r	0r	2e\	2cc\
.	.	.	2f\	2dd\
.	.	.	2g\	1g
.	.	.	4f\	.
.	.	.	4e\	.
=12	=12	=12	=12	=12
0r	0r	0r	1d	1r
.	.	.	2r	2.dd\
.	.	.	2d\	.
.	.	.	.	4dd\
=13	=13	=13	=13	=13
0r	0r	0r	2e\	2cc\
.	.	.	2f\	2dd\
.	.	.	2g\	2b\
.	.	.	4f\	2cc\
.	.	.	4e\	.
=14	=14	=14	=14	=14
0r	0r	0r	2.d\	2.dd\
.	.	.	4e\	4cc\
.	.	.	4f\	2.a/
.	.	.	4g\	.
.	.	.	[2a\	.
.	.	.	.	4b\
=15	=15	=15	=15	=15
0r	0r	0r	2a\]	4cc\
.	.	.	.	4dd\
.	.	.	2g\	2ee\
.	.	.	2.f\	2dd\
.	.	.	.	[2cc\
.	.	.	4e\	.
=16	=16	=16	=16	=16
0r	0r	0r	4c\	4cc\]
.	.	.	4d\	4a/
.	.	.	1e	2cc\
.	.	.	.	2b\
.	.	.	[2f\	[2a/
=17	=17	=17	=17	=17
0r	0r	0r	2f\]	4a/]
.	.	.	.	4e/
.	.	.	1e	2g/
.	.	.	.	1f
.	.	.	2d\	.
=18	=18	=18	=18	=18
0r	1c	0r	0e	0e
.	1c	.	.	.
=19	=19	=19	=19	=19
0r	2.G/	0r	0r	0r
.	4A/	.	.	.
.	1A	.	.	.
=20	=20	=20	=20	=20
1F	2r	0r	0r	0r
.	2A/	.	.	.
1F	2.c\	.	.	.
.	4d\	.	.	.
=21	=21	=21	=21	=21
2.C/	1e	0r	0r	0r
4D\	.	.	.	.
1D	[1f	.	.	.
=22	=22	=22	=22	=22
2D\	2f\]	0r	0r	0r
2.F\	2f\	.	.	.
.	1f	.	.	.
4G\	.	.	.	.
[2A\	.	.	.	.
=23	=23	=23	=23	=23
4A\]	1e	0r	0r	0r
4B\	.	.	.	.
2.c\	.	.	.	.
.	2r	.	.	.
4B\	.	.	.	.
4A\	2e\	.	.	.
4G\	.	.	.	.
=24	=24	=24	=24	=24
2F\	2d\	0r	0r	0r
2E\	2c\	.	.	.
1F	1d	.	.	.
=25	=25	=25	=25	=25
2E\	1e	0r	0r	0r
2A\	.	.	.	.
2G\	2r	.	.	.
2E\	2e\	.	.	.
=26	=26	=26	=26	=26
1G	2d\	0r	0r	0r
.	2B\	.	.	.
2D\	1d	.	.	.
[2F\	.	.	.	.
=27	=27	=27	=27	=27
4F\]	2A/	0r	0r	0r
4E\	.	.	.	.
2.A\	2.c\	.	.	.
4G\	4B\	.	.	.
4E\	2e\	.	.	.
4F\	.	.	.	.
=28	=28	=28	=28	=28
2G\	4d\	0r	0r	0r
.	4c\	.	.	.
1A	4B\	.	.	.
.	4A/	.	.	.
.	1B	.	.	.
2G#i\	.	.	.	.
=29	=29	=29	=29	=29
0A	0A	[0c	1a	0r
.	.	.	2a\	.
.	.	.	2a\	.
=30	=30	=30	=30	=30
0r	0r	0c]	2g\	1ee
.	.	.	2g\	.
.	.	.	2e\	2ee\
.	.	.	2e\	2ee\
=31	=31	=31	=31	=31
0r	1r	[0G	1g	2dd\
.	.	.	.	2dd\
.	2r	.	2g\	[1b
.	2B\	.	[2g\	.
=32	=32	=32	=32	=32
2r	2d\	0G]	2g\]	1b]
2E\	2e\	.	4f\	.
.	.	.	4e\	.
2G\	2B\	.	1d	2r
2G\	[2d\	.	.	2b\
=33	=33	=33	=33	=33
2D\	2d\]	0A	1d	2dd\
1D	2d\	.	.	2dd\
.	2A/	.	[1f	2dd\
[2D\	[2d\	.	.	[2a/
=34	=34	=34	=34	=34
2D\]	4d\]	0A	2f\]	2a/]
.	4c\	.	.	.
1F	2.A/	.	4e\	1a
.	.	.	4d\	.
.	.	.	[1c	.
.	4G/	.	.	.
4E\	4A/	.	.	[2cc\
4D\	4B\	.	.	.
=35	=35	=35	=35	=35
0C	1.c	[0e	1c]	2cc\]
.	.	.	.	4b\
.	.	.	.	4a/
.	.	.	1r	[1g
.	4B\	.	.	.
.	4A/	.	.	.
=36	=36	=36	=36	=36
1E	1B	0e]	1r	1g]
1r	1A	.	1a	1cc
=37	=37	=37	=37	=37
0r	0r	0f	2a\	2cc\
.	.	.	2a\	2cc\
.	.	.	1a	1dd
=38	=38	=38	=38	=38
1E	2r	0e	1g	1ee
.	2B\	.	.	.
2A\	2c\	.	2r	2r
2A\	2c\	.	2e\	2ee\
=39	=39	=39	=39	=39
1F	1d	0r	2a\	2ff\
.	.	.	2a\	2ff\
[1E	[1e	.	[1g	2.gg\
.	.	.	.	4ff\
=40	=40	=40	=40	=40
1E]	1e]	0r	2g\]	4ee\
.	.	.	.	4dd\
.	.	.	2e\	2.cc\
2r	2r	.	2f\	.
.	.	.	.	4b\
2E\	2e\	.	2g\	2g/
=41	=41	=41	=41	=41
2A\	2f\	0r	1c	0r
2A\	2f\	.	.	.
1G	2.g\	.	1r	.
.	4f\	.	.	.
=42	=42	=42	=42	=42
1A	4e\	[0e	2r	1r
.	4d\	.	.	.
.	2.c\	.	2e\	.
[1E	.	.	2.g\	2r
.	4B\	.	.	.
.	2G/	.	.	2e/
.	.	.	4f\	.
=43	=43	=43	=43	=43
1E]	2r	0e]	4e\	2.g/
.	.	.	4d\	.
.	2E/	.	2c\	.
.	.	.	.	4a/
1E	2G/	.	2B\	2b\
.	2A/	.	2e\	2cc\
=44	=44	=44	=44	=44
0r	1B	1d	1r	2dd\
.	.	.	.	2dd\
.	1A	1c	1e	1ee
=45	=45	=45	=45	=45
0F	2A/	0d	0a	0ff
.	1A	.	.	.
.	2A/	.	.	.
=46	=46	=46	=46	=46
0E	2.B\	[0e	2g\	2.gg\
.	.	.	2.g\	.
.	4G/	.	.	4ff\
.	1G	.	.	4ee\
.	.	.	4f\	4dd\
.	.	.	4e\	2cc\
.	.	.	4d\	.
=47	=47	=47	=47	=47
2G\	1r	0e]	2e\	2b\
2A\	.	.	2c\	1a
1E	2B\	.	1B	.
.	2B\	.	.	2g#i/
=48	=48	=48	=48	=48
1r	1c	0r	0A	0a
2r	2c\	.	.	.
2D\	[2d\	.	.	.
=49	=49	=49	=49	=49
2D\	4d\]	0r	0r	0r
.	4B\	.	.	.
1G	1B	.	.	.
2G\	[2e\	.	.	.
=50	=50	=50	=50	=50
1E	2e\]	0r	0r	1r
.	2e\	.	.	.
1G	2d\	.	.	2b\
.	2B\	.	.	2b\
=51	=51	=51	=51	=51
2r	1.e	0r	0r	1cc
1c	.	.	.	.
.	.	.	.	2cc\
2B\	2d\	.	.	[2dd\
=52	=52	=52	=52	=52
0G	2B\	0r	0r	2dd\]
.	1d	.	.	1b
.	2B\	.	.	[2ee\
=53	=53	=53	=53	=53
1A	1c	0r	2e\	2ee\]
.	.	.	2e\	2ee\
2B\	1B	.	4g\	4dd\
.	.	.	4f\	4b\
4G\	.	.	4e\	2dd\
4B\	.	.	4d\	.
=54	=54	=54	=54	=54
2A\	0r	[0e	4e\	2cc\
.	.	.	4d\	.
2G\	.	.	4c\	1b
.	.	.	4B\	.
1A	.	.	1c	.
.	.	.	.	2a/
=55	=55	=55	=55	=55
2r	2r	0e]	1B	1b
2E\	2G/	.	.	.
[1G	[1B	.	2r	2r
.	.	.	2B\	2b\
=56	=56	=56	=56	=56
1G]	2B\]	1d	2G/	2dd\
.	2B\	.	1g	2dd\
2E\	1G	1c	.	1ee
2E\	.	.	2e\	.
=57	=57	=57	=57	=57
0D	0A	0d	2f\	2a/
.	.	.	2d\	2.dd\
.	.	.	2.f\	.
.	.	.	.	4cc\
.	.	.	.	4a/
.	.	.	4g\	4b\
=58	=58	=58	=58	=58
0r	2A/	2c\	2a\	4cc\
.	.	.	.	4dd\
.	2A/	2A/	1a	2.ee\
.	1E	1B	.	.
.	.	.	.	4dd\
.	.	.	2g\	2b\
=59	=59	=59	=59	=59
1F	2r	0A	1a	0cc
.	2c\	.	.	.
2F\	2c\	.	2r	.
[2F\	[2A/	.	[2f\	.
=60	=60	=60	=60	=60
2F\]	2A/]	0r	2f\]	0r
2F\	2A/	.	2f\	.
2.E\	2.G/	.	2g\	.
.	.	.	2g\	.
4D\	4F/	.	.	.
=61	=61	=61	=61	=61
1C	1E	0r	2.g\	1cc
.	.	.	4f\	.
2r	2r	.	1e	2cc\
2C/	2E/	.	.	[2cc\
=62	=62	=62	=62	=62
2E\	2G/	0r	2r	2cc\]
2F\	2A/	.	2a\	2cc\
1G	2B\	.	2g\	2.b\
.	2E/	.	2g\	.
.	.	.	.	4a/
=63	=63	=63	=63	=63
0E	2B\	1.e	2g\	2g/
.	2c\	.	2e\	2g/
.	2B\	.	1g	2b\
.	2e\	2e\	.	2cc\
=64	=64	=64	=64	=64
0r	2r	2d\	0a	2dd\
.	2e\	2c\	.	1ee
.	2.f\	1d	.	.
.	.	.	.	[2dd\
.	4d\	.	.	.
=65	=65	=65	=65	=65
1r	1e	1A	1a	2dd\]
.	.	.	.	2cc\
2r	2d\	2r	2r	2dd\
2E\	2G/	2e\	2g\	2cc\
=66	=66	=66	=66	=66
2F\	2A/	2d\	2f\	2dd\
2E\	2G/	2c\	2g\	2ee\
1D	1A	[1d	4f\	1ff
.	.	.	4d\	.
.	.	.	[2a\	.
=67	=67	=67	=67	=67
1.G	1.B	1d]	2a\]	1.gg
.	.	.	2g\	.
.	.	[1d	2.g\	.
2D\	2A/	.	.	2ff\
.	.	.	4a\	.
=68	=68	=68	=68	=68
[0Dl	0A	1d]	0a	2.ff\
.	.	.	.	4ee\
.	.	[1A	.	4dd\
.	.	.	.	4cc\
.	.	.	.	[2dd\
=69	=69	=69	=69	=69
0D_	[0dl	1A]	1f	2dd\]
.	.	.	.	4cc\
.	.	.	.	4b\
.	.	[1Al	[1fl	1a
=70	=70	=70	=70	=70
0D]	0d]	0A]	0f]	1a
.	.	.	.	1ddl
!!LO:LB:i:g=z
=71||	=71||	=71||	=71||	=71||
*>B	*>B	*>B	*>B	*>B
*clefF4	*clefGv2	*clefGv2	*clefGv2	*clefG2
*k[]	*k[]	*k[]	*k[]	*k[]
*M2/1	*M2/1	*M2/1	*M2/1	*M2/1
*met(C2)	*met(C2)	*met(C2)	*met(C2)	*met(C2)
!!section: Et incarnatus est
!!!OMD: Et incarnatus est
0r	1d	0r	1f	0r
.	2d\	.	2f\	.
.	2d\	.	2f\	.
=72.	=72.	=72.	=72.	=72.
1r	2B\	0d	2g\	1dd
.	2B\	.	2g\	.
1D	1A	.	1a	2dd\
.	.	.	.	2dd\
=73	=73	=73	=73	=73
2G\	0r	1d	1r	2b\
2G\	.	.	.	2b\
1F	.	[1d	2r	[1a
.	.	.	2f\	.
=74.	=74.	=74.	=74.	=74.
1D	2r	1d]	2f\	1a]
.	2A/	.	2f\	.
[1A	2.c\	[1e	2e\	2r
.	.	.	2A/	2a/
.	4d\	.	.	.
=75	=75	=75	=75	=75
0A]	4e\	1e]	0a	2.cc\
.	4d\	.	.	.
.	4c\	.	.	.
.	4B\	.	.	4dd\
.	1c	1e	.	2ee\
.	.	.	.	2ee\
=76.	=76.	=76.	=76.	=76.
1r	1d	1d	1f	2.ff\
.	.	.	.	4ee\
2r	[1f	[1d	1r	2.dd\
2D\	.	.	.	.
.	.	.	.	8cc\L
.	.	.	.	8b\J
=77	=77	=77	=77	=77
2.F\	1f]	2d\]	0r	0a
.	.	2c\	.	.
4G\	.	.	.	.
2A\	1e	1c	.	.
2A\	.	.	.	.
=78.	=78.	=78.	=78.	=78.
2.B-\	2.d\	0d	0r	0r
4A\	4c\	.	.	.
2G\	2B\	.	.	.
4F\	2A/	.	.	.
4E\	.	.	.	.
=79	=79	=79	=79	=79
2D\	1A	0r	0a	0r
2D\	.	.	.	.
2.F\	2r	.	.	.
.	2A/	.	.	.
4G\	.	.	.	.
=80.	=80.	=80.	=80.	=80.
0A	2.c\	0r	1a	2r
.	.	.	.	2a/
.	4d\	.	.	.
.	[1e	.	1a	2.cc\
.	.	.	.	4dd\
=81	=81	=81	=81	=81
1A	1e]	0c	1a	2ee\
.	.	.	.	2ee\
[1F	1r	.	[1a	[1ff
=82.	=82.	=82.	=82.	=82.
1F]	1r	2A/	2a\]	2ff\]
.	.	2B\	2g\	4ee\
.	.	.	.	4dd\
1C	2r	2.c\	1g	1ee
.	2e\	.	.	.
.	.	4d\	.	.
=83	=83	=83	=83	=83
2r	1d	2B\	2r	2r
2D\	.	1A	2f\	2a/
1F	1c	.	1a	2a/
.	.	2A/	.	[2cc\
=84.	=84.	=84.	=84.	=84.
1C	2r	1.c	2.g\	2cc\]
.	1e	.	.	4b\
.	.	.	4f\	4a/
2r	.	.	1e	1g
2E\	4d\	4B\	.	.
.	4c\	4A/	.	.
=85	=85	=85	=85	=85
2E\	2.B\	1G	2r	2r
1G	.	.	2e\	2b\
.	4A/	.	.	.
.	1G	2r	1g	2b\
4F\	.	2B\	.	[2dd\
4E\	.	.	.	.
=86.	=86.	=86.	=86.	=86.
2.D\	2r	2B\	1f	2dd\]
.	2A/	1d	.	4cc\
4E\	.	.	.	4b\
4F\	2A/	.	2r	1a
4G\	.	.	.	.
[2A\	2A/	2c\	[2a\	.
=87	=87	=87	=87	=87
2A\]	2.c\	2A/	4a\]	1ee
.	.	.	4g\	.
2A\	.	2c\	4e\	.
.	4d\	.	4f\	.
2G\	[1e	2B\	2g\	2ee\
[2A\	.	[2c\	[2e\	[2ee\
=88.	=88.	=88.	=88.	=88.
2A\]	1e]	2c\]	2e\]	2ee\]
4G\	.	4B\	2.a\	2ee\
4F\	.	4A/	.	.
1E	[1el	1B	.	4ee\
.	.	.	4g#i\	4dd\
.	.	.	2g#i\	4cc\
.	.	.	.	4b\
=89	=89	=89	=89	=89
0AAl	0e]	0Al	0al	0ccl
!!LO:LB:i:g=z
=90||	=90||	=90||	=90||	=90||
*>C	*>C	*>C	*>C	*>C
*clefF4	*clefGv2	*clefGv2	*clefGv2	*clefG2
*k[]	*k[]	*k[]	*k[]	*k[]
*M2/1	*M2/1	*M2/1	*M2/1	*M2/1
*met(C2)	*met(C2)	*met(C2)	*met(C2)	*met(C2)
!!section: Crucifixus
!!!OMD: Crucifixus
0r	1c	0r	0r	0r
.	2G/	.	.	.
.	2G/	.	.	.
=91.	=91.	=91.	=91.	=91.
0r	2A/	0r	0r	1r
.	2.c\	.	.	.
.	.	.	.	2.ee\
.	4d\	.	.	.
.	2e\	.	.	.
.	.	.	.	4ee\
=92	=92	=92	=92	=92
0r	1f	0r	0r	2dd\
.	.	.	.	2cc\
.	1f	.	.	1dd
=93.	=93.	=93.	=93.	=93.
0r	0e	0r	1c	0ee
.	.	.	2G/	.
.	.	.	2G/	.
=94	=94	=94	=94	=94
1c	0r	0r	2A/	0r
.	.	.	2.c\	.
2G\	.	.	.	.
.	.	.	4d\	.
2G\	.	.	4e\	.
.	.	.	8d\L	.
.	.	.	8e\J	.
=95.	=95.	=95.	=95.	=95.
2A\	0r	0r	2f\	0r
2E\	.	.	1e	.
1F	.	.	.	.
.	.	.	2d\	.
=96	=96	=96	=96	=96
1E	1r	0r	1e	1r
1E	1e	.	2.g\	1ee
.	.	.	4a\	.
=97.	=97.	=97.	=97.	=97.
2G\	2B\	0r	2b\	2dd\
2A\	2e\	.	1cc	2cc\
2B\	2d\	.	.	2.dd\
2G\	2B\	.	2b\	.
.	.	.	.	4cc\
=98	=98	=98	=98	=98
1A	1e	0r	2b\	2a/
.	.	.	1a	2cc\
1E	1e	.	.	1b
.	.	.	2g#i\	.
=99.	=99.	=99.	=99.	=99.
[0A	2r	[0c	0a	0a
.	2A/	.	.	.
.	2A/	.	.	.
.	2A/	.	.	.
=100	=100	=100	=100	=100
0A]	2.c\	0c_	0r	2r
.	.	.	.	2a/
.	4d\	.	.	.
.	1e	.	.	2a/
.	.	.	.	2a/
=101.	=101.	=101.	=101.	=101.
1r	2r	0c_	0r	2.cc\
.	2A/	.	.	.
.	.	.	.	4dd\
1A	2.c\	.	.	1ee
.	4d\	.	.	.
=102	=102	=102	=102	=102
1A	1e	0c]	0r	2r
.	.	.	.	2a/
1F	1f	.	.	2.cc\
.	.	.	.	4dd\
=103.	=103.	=103.	=103.	=103.
0E	2.g\	0G	0r	2ee\
.	.	.	.	2ff\
.	4f\	.	.	.
.	4e\	.	.	1gg
.	4d\	.	.	.
.	2c\	.	.	.
=104	=104	=104	=104	=104
[0D	1d	0A	1a	1ff
.	1d	.	1a	2ff\
.	.	.	.	[2ff\
=105.	=105.	=105.	=105.	=105.
0D]	1f	[0A	0a	2ff\]
.	.	.	.	1dd
.	1f	.	.	.
.	.	.	.	4cc\
.	.	.	.	4b\
=106	=106	=106	=106	=106
0r	1.e	0A]	1.a	2.cc\
.	.	.	.	4dd\
.	.	.	.	4ee\
.	.	.	.	4ff\
.	2A/	.	4g\	[2ee\
.	.	.	4f\	.
=107.	=107.	=107.	=107.	=107.
0r	0A	0e	4g\	2ee\]
.	.	.	4f\	.
.	.	.	4e\	1dd
.	.	.	4d\	.
.	.	.	1e	.
.	.	.	.	2cc#i\
=108	=108	=108	=108	=108
1D	1r	[0f	0d	0dd
2D\	1A	.	.	.
2D\	.	.	.	.
=109.	=109.	=109.	=109.	=109.
2F\	2A/	0f]	1a	2r
2F\	2A/	.	.	2a/
1F	2c\	.	2f\	2a/
.	2c\	.	2f\	2a/
=110	=110	=110	=110	=110
0C	1c	0r	2g\	2cc\
.	.	.	2e\	2cc\
.	[1G	.	1g	1cc
=111.	=111.	=111.	=111.	=111.
1E	1G]	0r	1e	1g
2D\	1d	.	2f\	2.b\
[2G\	.	.	[2g\	.
.	.	.	.	4a/
=112	=112	=112	=112	=112
4G\]	2d\	0r	2g\]	2a/
4F\	.	.	.	.
2F\	1f	.	1a	1dd
2D\	.	.	.	.
[2A\	2e\	.	2a\	2cc\
=113.	=113.	=113.	=113.	=113.
2A\]	1d	0r	2f\	2a/
2G\	.	.	2g\	1b
1A	2.c\	.	1e	.
.	.	.	.	[2a/
.	4A/	.	.	.
=114	=114	=114	=114	=114
1E	1B	0r	1e	2a/]
.	.	.	.	2g#i/
1r	1A	.	1r	1a
=115.	=115.	=115.	=115.	=115.
1A	0r	[0e	1c	0r
2A\	.	.	2c\	.
2A\	.	.	2c\	.
=116	=116	=116	=116	=116
2G\	0r	1e]	2B\	0r
2E\	.	.	2G/	.
2F\	.	1d	2A/	.
2G\	.	.	2B\	.
=117.	=117.	=117.	=117.	=117.
0C	1G	0c	2c\	1ee
.	.	.	4B\	.
.	.	.	4A/	.
.	2c\	.	1G	2ee\
.	2c\	.	.	2ee\
=118	=118	=118	=118	=118
0r	2B\	0d	0r	2dd\
.	2G/	.	.	2b\
.	2A/	.	.	2cc\
.	2B\	.	.	2dd\
=119.	=119.	=119.	=119.	=119.
1c	1c	0e	0g	2g/
.	.	.	.	2ee\
2c\	1r	.	.	2ee\
2c\	.	.	.	2ee\
=120	=120	=120	=120	=120
2B\	0r	0r	1g	2dd\
2G\	.	.	.	2b\
2A\	.	.	1f	2cc\
2B\	.	.	.	2dd\
=121.	=121.	=121.	=121.	=121.
0E	1B	0r	1e	2.ee\
.	.	.	.	4dd\
.	1B	.	1g	2b\
.	.	.	.	[2ee\
=122	=122	=122	=122	=122
2r	1.c	0r	1a	2ee\]
1A	.	.	.	2ff\
.	.	.	1e	2ee\
2A\	2A/	.	.	2cc\
=123.	=123.	=123.	=123.	=123.
2G\	2B\	0r	1g	2dd\
2E\	2c\	.	.	1cc
2F\	1d	.	2f\	.
2G\	.	.	2d\	2b\
=124	=124	=124	=124	=124
*M3/1	*M3/1	*M3/1	*M3/1	*M3/1
*met()	*met(3)	*met()	*met(3)	*met(3)
!!primary-mensuration: met(3)
!LO:N:vis=0	!	!LO:N:vis=0	!	!
0.r	0c	0.e	1g	0.cc
.	.	.	1e	.
.	1r	.	2e\	.
.	.	.	2f\	.
=125	=125	=125	=125	=125
!LO:N:vis=0	!	!LO:N:vis=1	!	!
0.r	1c	1.e	1g	1r
!	!	!LO:N:vis=1	!	!
.	2c\	.	1c	1r
.	2d\	1.e	.	.
.	1e	.	2c\	1cc
.	.	.	2d\	.
=126	=126	=126	=126	=126
!LO:N:vis=0	!	!LO:N:vis=0	!	!
0.r	0.A	0.e	1e	2cc\
.	.	.	.	2dd\
.	.	.	1A	1ee
.	.	.	1a	1a
=127	=127	=127	=127	=127
!LO:N:vis=0	!	!	!	!
*	*	*M3/1	*	*
*	*	*met(3)	*	*
0.r	0.r	0e	0g	0cc
.	.	1d	1f	1b
=128	=128	=128	=128	=128
!LO:N:vis=0	!	!	!	!
0.r	0.r	1c	1e	1a
.	.	0d	1.f	1.b
.	.	.	2e\	2a/
=129	=129	=129	=129	=129
*M2/1	*M2/1	*M2/1	*M2/1	*M2/1
*met()	*met(C2)	*met(C2)	*met(C2)	*met(C2)
!!primary-mensuration: met(C2)
0r	1c	[0A	0e	0a
.	2c\	.	.	.
.	[2c\	.	.	.
=130.	=130.	=130.	=130.	=130.
1F	2c\]	0A]	1a	0r
.	4B\	.	.	.
.	4A/	.	.	.
2F\	2c\	.	2a\	.
2F\	2d\	.	2a\	.
=131	=131	=131	=131	=131
2E\	0e	0r	2g\	0r
1A	.	.	1c	.
2G\	.	.	2B\	.
=132.	=132.	=132.	=132.	=132.
2A\	2r	0r	2B\	0r
4G\	2e\	.	1A	.
4F\	.	.	.	.
1E	2e\	.	.	.
.	[2e\	.	2G/	.
=133	=133	=133	=133	=133
2r	2e\]	0r	1A	1cc
1A	4d\	.	.	.
.	4c\	.	.	.
.	2e\	.	1r	2cc\
2A\	2f\	.	.	2cc\
=134.	=134.	=134.	=134.	=134.
2G\	2g\	0r	0r	2b\
1c	2e\	.	.	1ee
.	1f	.	.	.
2B\	.	.	.	2dd\
=135	=135	=135	=135	=135
2c\	0e	0r	0r	2.ee\
4B\	.	.	.	.
4A\	.	.	.	4dd\
2G\	.	.	.	2b\
2A\	.	.	.	[2cc\
=136.	=136.	=136.	=136.	=136.
0E	0r	0e	0r	2cc\]
.	.	.	.	1b
.	.	.	.	2g/
=137	=137	=137	=137	=137
0r	0r	2d\	0r	2a/
.	.	2c\	.	2e/
.	.	1d	.	1f
=138.	=138.	=138.	=138.	=138.
1E	1B	[0e	0r	0e
2E\	2B\	.	.	.
2E\	[2c\	.	.	.
=139	=139	=139	=139	=139
2G\	2c\]	0e]	0r	1r
1A	4B\	.	.	.
.	4A/	.	.	.
.	1B	.	.	2r
2G\	.	.	.	2e/
=140.	=140.	=140.	=140.	=140.
2A\	2A/	0r	0r	2e/
2c\	2A/	.	.	2f/
2B\	2G/	.	.	2g/
2A\	2F/	.	.	[2a/
=141	=141	=141	=141	=141
1B	1E	1r	1e	2a/]
.	.	.	.	2g/
1A	1r	1e	2c\	2a/
.	.	.	2A/	2cc\
=142.	=142.	=142.	=142.	=142.
2r	0r	2d\	2B\	2b\
2A\	.	2c\	2c\	2a/
2B\	.	1d	1B	2.dd\
2G\	.	.	.	.
.	.	.	.	4cc\
=143	=143	=143	=143	=143
1A	1r	2A/	0e	2b\
.	.	2c\	.	1a
1E	1B	1B	.	.
.	.	.	.	2g#i/
=144.	=144.	=144.	=144.	=144.
1r	1c	1A	0e	1a
1E	1B	1r	.	1r
=145	=145	=145	=145	=145
1F	2A/	0r	1r	0r
.	2A/	.	.	.
1E	2B\	.	1e	.
.	2c\	.	.	.
=146.	=146.	=146.	=146.	=146.
2D\	1d	0r	1f	1r
2D\	.	.	.	.
2E\	1r	.	2e\	2r
2F\	.	.	[2d\	2a/
=147	=147	=147	=147	=147
2.G\	1r	0r	2d\]	2b\
.	.	.	2g\	2cc\
4F\	.	.	.	.
1D	1A	.	2.f\	1dd
.	.	.	4e\	.
=148.	=148.	=148.	=148.	=148.
2r	2B\	0r	1d	1r
2D\	2A/	.	.	.
2E\	1c	.	2r	2r
2F\	.	.	2a\	2a/
=149	=149	=149	=149	=149
2G\	2B\	1d	2g\	2b\
2F\	2A/	.	1a	2cc\
2D\	1A	2d\	.	2dd\
2A\	.	2c\	[2a\	[2ee\
=150.	=150.	=150.	=150.	=150.
2B\	0r	1d	2a\]	2ee\]
2B\	.	.	2g\	1dd
1A	.	1e	1a	.
.	.	.	.	2cc\
=151	=151	=151	=151	=151
1D	1A	0d	2r	2dd\
.	.	.	2f\	2a/
1G	2G/	.	2g\	2b\
.	2G/	.	2g\	2b\
=152.	=152.	=152.	=152.	=152.
0D	2A/	1d	1f	2a/
.	2B\	.	.	2.dd\
.	2A/	2d\	2.a\	.
.	.	.	.	4cc\
.	[2d\	2d\	.	4b\
.	.	.	4g\	4a/
=153	=153	=153	=153	=153
0r	4d\]	2d\	2f\	2b\
.	4c\	.	.	.
.	4B\	2d\	2e\	1a
.	4A/	.	.	.
.	1B	1d	1d	.
.	.	.	.	2g#i/
=154.	=154.	=154.	=154.	=154.
1r	0A	0c	1e	0a
[1F	.	.	2r	.
.	.	.	[2a\	.
=155	=155	=155	=155	=155
2F\]	0r	1r	2a\]	0r
2F\	.	.	2a\	.
2E\	.	[1c	2g\	.
2E\	.	.	2g\	.
=156.	=156.	=156.	=156.	=156.
1F	0r	2c\]	1f	0r
.	.	2c\	.	.
1G	.	2B\	1e	.
.	.	2B\	.	.
=157	=157	=157	=157	=157
2E\	0r	1c	1g	0r
2E\	.	.	.	.
1D	.	1d	1f	.
=158.	=158.	=158.	=158.	=158.
0r	0r	2B\	1d	1dd
.	.	2B\	.	.
.	.	1A	1a	2cc\
.	.	.	.	2cc\
=159	=159	=159	=159	=159
0r	1r	0r	2g\	1b
.	.	.	2g\	.
.	1d	.	1f	2a/
.	.	.	.	2a/
=160.	=160.	=160.	=160.	=160.
0r	2c\	0r	2e\	1cc
.	2c\	.	2e\	.
.	1G	.	1g	1b
=161	=161	=161	=161	=161
0r	1.d	0r	1.f	2.a/
.	.	.	.	4b\
.	.	.	.	4cc\
.	.	.	.	4dd\
.	2A/	.	[2e\	[2ee\
=162.	=162.	=162.	=162.	=162.
0r	1c	0r	2e\]	2ee\]
.	.	.	1a	4dd\
.	.	.	.	4cc\
.	1B	.	.	1dd
.	.	.	2g#i\	.
=163	=163	=163	=163	=163
1F	0A	1r	0a	0cc
2F\	.	1c	.	.
2F\	.	.	.	.
=164.	=164.	=164.	=164.	=164.
2E\	0r	2c\	0r	0r
2F\	.	2c\	.	.
2G\	.	2B\	.	.
4F\	.	2c\	.	.
4E\	.	.	.	.
=165	=165	=165	=165	=165
4D\	0r	2d\	0r	0r
4E\	.	.	.	.
4F\	.	4c\	.	.
4G\	.	4B\	.	.
2A\	.	4A/	.	.
.	.	4B\	.	.
[2G\	.	4c\	.	.
.	.	4d\	.	.
=166.	=166.	=166.	=166.	=166.
4G\]	0r	2e\	1r	0r
4D\	.	.	.	.
2F\	.	1d	.	.
1E	.	.	1g	.
.	.	2c#i\	.	.
=167	=167	=167	=167	=167
1D	0r	0d	2f\	1r
.	.	.	2d\	.
1r	.	.	2f\	1dd
.	.	.	2g\	.
=168.	=168.	=168.	=168.	=168.
0r	0r	2a\	1.a	2cc\
.	.	2r	.	2a/
.	.	1r	.	2cc\
.	.	.	4g\	2dd\
.	.	.	4f\	.
=169	=169	=169	=169	=169
0r	0r	0r	1e	2ee\
.	.	.	.	4dd\
.	.	.	.	4cc\
.	.	.	1e	2b\
.	.	.	.	[2ee\
=170.	=170.	=170.	=170.	=170.
0r	2r	0r	1f	2ee\]
.	2d\	.	.	2dd\
.	2c\	.	1e	2ee\
.	2A/	.	.	[2cc\
=171	=171	=171	=171	=171
1F	2c\	0r	0r	2cc\]
.	2d\	.	.	4b\
.	.	.	.	4a/
2E\	[1e	.	.	1g
2C/	.	.	.	.
=172.	=172.	=172.	=172.	=172.
2E\	2e\]	0r	0r	0r
2F\	4d\	.	.	.
.	4c\	.	.	.
2G\	2B\	.	.	.
2A\	2c\	.	.	.
=173	=173	=173	=173	=173
1E	2B\	0r	1r	0r
.	1e	.	.	.
1F	.	.	1a	.
.	2d\	.	.	.
=174.	=174.	=174.	=174.	=174.
1E	1e	0r	2g\	1ee
.	.	.	2e\	.
1r	1r	.	2f\	2dd\
.	.	.	4e\	2b\
.	.	.	4d\	.
=175	=175	=175	=175	=175
0r	1r	0r	0c	2cc\
.	.	.	.	4b\
.	.	.	.	4a/
.	1e	.	.	2g/
.	.	.	.	[2cc\
=176.	=176.	=176.	=176.	=176.
1r	2d\	0r	0r	2cc\]
.	2B\	.	.	1b
1A	1c	.	.	.
.	.	.	.	2a/
=177	=177	=177	=177	=177
2G\	2B\	0r	1r	1b
2E\	1e	.	.	.
2.F\	.	.	1a	1r
.	2d\	.	.	.
4E\	.	.	.	.
=178.	=178.	=178.	=178.	=178.
1C	1e	0r	2g\	1ee
.	.	.	2e\	.
1r	1r	.	2f\	2dd\
.	.	.	4e\	2b\
.	.	.	4d\	.
=179	=179	=179	=179	=179
0r	0e	0r	1c	2cc\
.	.	.	.	4b\
.	.	.	.	4a/
.	.	.	2r	2g/
.	.	.	2g\	[2cc\
=180.	=180.	=180.	=180.	=180.
1r	2d\	0r	2f\	2cc\]
.	2B\	.	2d\	1b
1A	1c	.	2e\	.
.	.	.	2f\	2a/
=181	=181	=181	=181	=181
2G\	2B\	0r	1g	2b\
2E\	1c	.	.	2g/
2.F\	.	.	1r	2a/
.	2d\	.	.	2f/
4E\	.	.	.	.
=182.	=182.	=182.	=182.	=182.
2C/	1.e	0r	1g	4g/
.	.	.	.	4a/
2G\	.	.	.	4b\
.	.	.	.	8a/L
.	.	.	.	8b/J
2A\	.	.	2e\	2cc\
2E\	4d\	.	[2e\	[2b\
.	4c\	.	.	.
=183	=183	=183	=183	=183
1F	4d\	0r	2e\]	2b\]
.	4c\	.	.	.
.	4B\	.	2d\	1a
.	4A/	.	.	.
1E	1B	.	1e	.
.	.	.	.	2g#i/
=184.	=184.	=184.	=184.	=184.
1r	0A	[0c	0e	0a
1A	.	.	.	.
=185	=185	=185	=185	=185
0A	0r	0c]	1r	1r
.	.	.	1a	1ee
=186.	=186.	=186.	=186.	=186.
0A	1r	0c	0a	1ff
.	1e	.	.	[1ee
=187	=187	=187	=187	=187
1E	0e	0B	1g	2ee\]
.	.	.	.	2cc\
1G	.	.	1e	1b
=188.	=188.	=188.	=188.	=188.
0F	0A	[0c	0f	1a
.	.	.	.	[1cc
=189	=189	=189	=189	=189
0C	0G	0c]	0e	2cc\]
.	.	.	.	2a/
.	.	.	.	[1g
=190.	=190.	=190.	=190.	=190.
[0G	1G	0d	1r	1g]
.	[1B	.	[1g	[1dd
=191	=191	=191	=191	=191
1G]	2B\]	[0d	1g]	2dd\]
.	2A/	.	.	2g/
1F	1A	.	1a	[1cc
=192.	=192.	=192.	=192.	=192.
0G	1B	0d]	0g	2cc\]
.	.	.	.	2b\
.	1G	.	.	1b
=193	=193	=193	=193	=193
1C	1.g	[0c	1.e	0cc
[1c	.	.	.	.
.	2f\	.	2f\	.
=194.	=194.	=194.	=194.	=194.
2c\]	2e\	0c]	1g	1r
2B\	2d\	.	.	.
1A	1c	.	1a	1cc
=195	=195	=195	=195	=195
0G	1r	0B	1d	1dd
.	1d	.	[1g	1b
=196.	=196.	=196.	=196.	=196.
0A	0c	1A	2g\]	1cc
.	.	.	4f\	.
.	.	.	4g\	.
.	.	1c	1f	1a
=197	=197	=197	=197	=197
0G	1B	1d	0g	1b
.	1d	1B	.	1g
=198.	=198.	=198.	=198.	=198.
1r	2e\	1c	0r	1a
.	1c	.	.	.
1F	.	1A	.	1cc
.	4B\	.	.	.
.	4A/	.	.	.
=199	=199	=199	=199	=199
1G	0G	1B	0g	1b
1E	.	1G	.	1ee
=200.	=200.	=200.	=200.	=200.
1F	1r	0A	0f	2dd\
.	.	.	.	2cc\
1D	1d	.	.	4dd\
.	.	.	.	4cc\
.	.	.	.	4b\
.	.	.	.	4a/
=201	=201	=201	=201	=201
1E	1B	0e	1g	1g
1C	1c	.	1e	1cc
=202.	=202.	=202.	=202.	=202.
1D	1F	2.d\	1f	2b\
.	.	.	.	2a/
.	.	4c\	.	.
1F	2r	1A	1d	[1a
.	2F/	.	.	.
=203	=203	=203	=203	=203
0E	2G/	0B	1.e	1a]
.	2A/	.	.	.
.	1B	.	.	1g#i
.	.	.	4d\	.
.	.	.	4e\	.
=204.	=204.	=204.	=204.	=204.
*^	*	*	*	*
0AA\	0A/	1A	1c	2f\	1a
.	.	.	.	2e\	.
.	.	1e	1A	[1a	1cc
*v	*v	*	*	*	*
=205	=205	=205	=205	=205
[0E	[0e	[0B	2a\]	2b\
.	.	.	4g\	1ee
.	.	.	4f\	.
.	.	.	2g\	.
.	.	.	2e\	4dd\
.	.	.	.	4cc\
=206.	=206.	=206.	=206.	=206.
0E;]	0e;]	0B;]	0g;	0b;
=207	=207	=207	=207	=207
0AAl	0el	0Al	0al	0ccl
==	==	==	==	==
*-	*-	*-	*-	*-
!!!RDF**kern: l=long note in original notation
!!!RDF**kern: i=editorial accidental
!!!ENC:	Chris Gage 12-04-2012
!!!END:	2013/05/24/
!!!EED:	Jesse Rodin
!!!EEV:	2013/07/19/
!!!ONB:	Translated from MusicXML and edited on 2013/07/19/ by Craig Sapp
!!muse2ps: T^@{OPR}^u^@{ONM}{. }@{OTL}^C^@{COM}^i2I150v85,85,85,85,130Q16
